src/16/panel/indicator-sensors-battery.svg

<svg xmlns="http://www.w3.org/2000/svg" width="16" height="16"><defs><style id="current-color-scheme" type="text/css"></style></defs><path d="M6 1v1H3v13h10V2h-3V1zM4 9h8v2H4zm0 3h8v2H4z" fill="currentColor" color="#bebebe"/></svg>

<svg xmlns="http://www.w3.org/2000/svg" width="16" height="16" version="1.1">
 <defs>
  <style id="current-color-scheme" type="text/css">
   .ColorScheme-Text { color:#bebebe; } .ColorScheme-Highlight { color:#5294e2; }
  </style>
 </defs>
 <path style="fill:currentColor" class="ColorScheme-Text" d="M 6,1 V 2 H 3 V 15 H 13 V 2 H 10 V 1 Z M 4,9 H 12 V 11 H 4 Z M 4,12 H 12 V 14 H 4 Z"/>
</svg>
